packages/bezier-icons/icons/face-disappointed.svg

<svg width="24" height="24" viewBox="0 0 24 24" fill="none" xmlns="http://www.w3.org/2000/svg">
<path d="M12.911 17.2959L12.9736 17.3543L12.9549 17.3534C12.7622 17.2906 12.4516 17.2467 12.0028 17.2467C11.6164 17.2464 11.3316 17.2787 11.136 17.3277L11.0455 17.3535C11.0142 17.3637 11.0208 17.3578 11.0538 17.3282C11.0658 17.3175 11.0812 17.3036 11.0996 17.2863C10.6977 17.6652 10.0648 17.6465 9.68597 17.2447C9.30712 16.8428 9.32576 16.2099 9.72761 15.8311C9.87933 15.6881 10.1095 15.555 10.4259 15.4519C10.8327 15.3194 11.3529 15.2462 12.0036 15.2467C12.652 15.2467 13.1699 15.3198 13.5751 15.452C13.8916 15.5552 14.1219 15.6886 14.2736 15.8321C14.6749 16.2115 14.6927 16.8444 14.3132 17.2457C13.9374 17.6433 13.3128 17.6644 12.911 17.2959Z" fill="#313234"/>
<path d="M9.44867 5.88603L9.42336 5.93511C9.35939 6.04671 9.21467 6.2353 8.97738 6.43499C8.48119 6.85254 7.79721 7.10812 6.8535 7.10812C6.30122 7.10812 5.8535 7.55583 5.8535 8.10812C5.8535 8.6604 6.30122 9.10812 6.8535 9.10812C8.27404 9.10812 9.41256 8.6827 10.2651 7.96525C10.7975 7.51722 11.1182 7.05408 11.2763 6.69821C11.5006 6.19352 11.2733 5.60257 10.7686 5.37829C10.2639 5.15401 9.67295 5.38133 9.44867 5.88603Z" fill="#313234"/>
<path d="M8.7863 13.9308C7.9413 13.9308 7.5873 13.3208 7.5873 11.8258C7.5873 10.3298 7.9413 9.71985 8.7863 9.71985C9.6313 9.71985 9.9843 10.3298 9.9843 11.8258C9.9843 13.3208 9.6313 13.9308 8.7863 13.9308Z" fill="#313234"/>
<path d="M14.015 11.8258C14.015 13.3208 14.368 13.9308 15.214 13.9308C16.059 13.9308 16.412 13.3208 16.412 11.8258C16.412 10.3298 16.059 9.71985 15.214 9.71985C14.368 9.71985 14.015 10.3298 14.015 11.8258Z" fill="#313234"/>
<path fill-rule="evenodd" clip-rule="evenodd" d="M19.4479 1.68298L22.1941 7.14845C22.7302 8.21683 22.5948 9.48651 21.8748 10.4127C21.9573 10.9297 22.0002 11.4599 22.0002 12.0001C22.0002 17.5221 17.5222 22.0001 12.0002 22.0001C6.4772 22.0001 2.0002 17.5221 2.0002 12.0001C2.0002 6.47812 6.4772 2.00012 12.0002 2.00012C14.3439 2.00012 16.4995 2.80678 18.2045 4.15754L19.4479 1.68298ZM19.9878 11.5518C19.996 11.7002 20.0002 11.8497 20.0002 12.0001C20.0002 16.4111 16.4112 20.0001 12.0002 20.0001C7.5882 20.0001 4.0002 16.4111 4.0002 12.0001C4.0002 7.58912 7.5882 4.00012 12.0002 4.00012C14.0219 4.00012 15.871 4.75408 17.2809 5.99558L16.7313 7.08951C16.0034 7.02371 15.4519 6.78686 15.0337 6.43499C14.7569 6.20202 14.606 5.98415 14.5624 5.88603L14.5089 5.78219C14.2542 5.35116 13.7112 5.17003 13.2425 5.37829C12.7378 5.60257 12.5105 6.19352 12.7348 6.69821C12.8929 7.05408 13.2136 7.51722 13.746 7.96525C14.4461 8.55445 15.3392 8.9467 16.4229 9.0681C16.5307 9.67228 16.8193 10.2447 17.2747 10.7002C18.0126 11.4372 19.0327 11.7211 19.9878 11.5518ZM19.447 5.74103L18.3301 7.96561C18.0881 8.44804 18.182 9.03073 18.5627 9.41147C19.051 9.89921 19.8448 9.89921 20.3327 9.41185C20.7139 9.03073 20.8078 8.44804 20.5659 7.96605L19.447 5.74103Z" fill="#313234"/>
</svg>

<svg xmlns="http://www.w3.org/2000/svg" width="24" height="24" fill="none" viewBox="0 0 24 24"><path fill="#313234" d="m12.911 17.296.063.058h-.02c-.192-.063-.502-.107-.951-.107-.387 0-.671.032-.867.08l-.09.026c-.032.01-.025.005.008-.025l.046-.042a1 1 0 0 1-1.372-1.455c.151-.143.382-.276.698-.38.407-.132.927-.205 1.578-.204.648 0 1.166.073 1.571.205.317.103.547.237.699.38a1 1 0 0 1-1.363 1.464M9.449 5.886l-.026.05c-.064.11-.208.3-.446.499-.496.418-1.18.673-2.123.673a1 1 0 1 0 0 2c1.42 0 2.559-.425 3.411-1.143.532-.448.853-.91 1.011-1.267a1 1 0 1 0-1.827-.812M8.786 13.93c-.845 0-1.199-.61-1.199-2.104 0-1.496.354-2.106 1.2-2.106.844 0 1.197.61 1.197 2.106s-.353 2.105-1.198 2.105M14.015 11.826c0 1.495.353 2.105 1.199 2.105.845 0 1.198-.61 1.198-2.105s-.353-2.106-1.198-2.106c-.846 0-1.199.61-1.199 2.106"/><path fill="#313234" fill-rule="evenodd" d="m19.448 1.683 2.746 5.465a3.07 3.07 0 0 1-.32 3.265Q22 11.189 22 12c0 5.522-4.478 10-10 10S2 17.522 2 12 6.477 2 12 2c2.344 0 4.5.807 6.204 2.158zm.54 9.869Q20 11.775 20 12c0 4.411-3.589 8-8 8-4.412 0-8-3.589-8-8s3.588-8 8-8c2.022 0 3.871.754 5.28 1.996l-.549 1.094c-.728-.066-1.28-.303-1.697-.655-.277-.233-.428-.45-.472-.549l-.053-.104a1 1 0 0 0-1.774.916c.158.356.479.82 1.011 1.267.7.59 1.593.982 2.677 1.103a3.073 3.073 0 0 0 3.565 2.484m-.541-5.811L18.33 7.966a1.251 1.251 0 1 0 2.236 0z" clip-rule="evenodd"/></svg>
